!!!COM: des Prez, Josquin
!!!CDT: ~1450-1521/08/27
!!!OPR: Missa L'ami Baudichon
!!!ONM: 2
!!!OTL: Gloria
!!!AGN: Mass; Gloria
!!!SCT: NJE 5.1
!!!SCA: New Josquin Edition 5.1
!!!voices: 4
!!!voices-OPR: 4
**kern	**text	**kern	**text	**kern	**text	**kern	**text
*staff4	*	*staff3	*	*staff2	*	*staff1	*
*Ivox	*	*Ivox	*	*Ivox	*	*Ivox	*
*I"Bassus	*	*I"Tenor	*	*I"Altus	*	*I"Superius	*
*I'B	*	*I'T	*	*I'A	*	*I'S	*
*clefF4	*	*clefGv2	*	*clefGv2	*	*clefG2	*
*k[]	*	*k[]	*	*k[]	*	*k[]	*
*M3/1	*	*M3/1	*	*M3/1	*	*M3/1	*
*met(O)	*	*met(O)	*	*met(O)	*	*met(O)	*
=1-	=1-	=1-	=1-	=1-	=1-	=1-	=1-
!	!	!LO:TX:Z=24:X=-40:t=Canon&colon; In duplo [2&colon;1 augmentation]	!	!	!	!	!
*	*	*rscale:1/2	*	*	*	*	*
!	!	!LO:N:vis:0.	!	!	!	!	!
!	!	!LO:TX:Z=6:t=T text based loosely on Verona 761, where the French words appear sporadically throughout the mass	!	!	!	!	!
0.r	.	0.r	.	0c	Et	0cc	Et
.	.	.	.	2e\	in	1cc	in
.	.	.	.	2f\	.	.	.
=2	=2	=2-	=2	=2	=2	=2	=2
0.r	.	0.ryy	.	1g	ter-	1b	ter-
.	.	.	.	1.f	-ra	1.a	-ra
.	.	.	.	2e\	.	2g/	.
=3	=3	=3	=3	=3	=3	=3	=3
!	!	!LO:N:vis:0.	!	!	!	!	!
0.r	.	0.r	.	1e	.	1g	.
.	.	.	.	2d\	.	1.f	.
.	.	.	.	1d	.	.	.
.	.	.	.	4c\	.	2e/	.
.	.	.	.	4B\	.	.	.
=4	=4	=4-	=4	=4	=4	=4	=4
0.r	.	0.ryy	.	2G/	.	1e	.
.	.	.	.	2c\	.	.	.
.	.	.	.	2d\	.	1.d	.
.	.	.	.	1B	.	.	.
.	.	.	.	2A/	.	2c/	.
=5	=5	=5	=5	=5	=5	=5	=5
!	!	!LO:N:vis:0.	!	!	!	!	!
0.r	.	0.r	.	0.c	pax	1c	pax
.	.	.	.	.	.	1r	.
.	.	.	.	.	.	1c	ho-
=6	=6	=6-	=6	=6	=6	=6	=6
0.r	.	0.ryy	.	1r	.	1.e	-mi-
.	.	.	.	1r	.	.	.
.	.	.	.	.	.	2f/	.
.	.	.	.	1c	ho-	1g	-ni-
=7	=7	=7	=7	=7	=7	=7	=7
!	!	!LO:N:vis:0.	!	!	!	!	!
0.r	.	0.r	.	1.e	-mi-	1c	-bus
.	.	.	.	.	.	1r	.
.	.	.	.	2f\	.	.	.
.	.	.	.	1g	-ni-	1b	bo-
=8	=8	=8-	=8	=8	=8	=8	=8
0.r	.	0.ryy	.	2.c\	-bus	1.cc	.
.	.	.	.	4B\	.	.	.
.	.	.	.	2A/	.	.	.
.	.	.	.	2G/	.	2b\	.
.	.	.	.	2c\	bo-	1a	-ne
.	.	.	.	2d\	-ne	.	.
=9	=9	=9	=9	=9	=9	=9	=9
!	!	!LO:N:vis:0.	!	!	!	!	!
0.r	.	0.r	.	2.e\	vo-	1g	vo-
.	.	.	.	4d\	.	.	.
.	.	.	.	2e\	.	1cc	.
.	.	.	.	1f	-lun-	.	.
.	.	.	.	.	.	1dd	-lun-
.	.	.	.	[2g\	-ta-	.	.
=10	=10	=10-	=10	=10	=10	=10	=10
0.r	.	0.ryy	.	2g\]	.	2.ee\	-ta-
.	.	.	.	2c\	.	.	.
.	.	.	.	.	.	4dd\	.
.	.	.	.	2g\	.	2ee\	.
.	.	.	.	2a\	.	2.ff\	.
.	.	.	.	2f\	.	.	.
.	.	.	.	.	.	4ee\	.
.	.	.	.	[2g\	.	4dd\	.
.	.	.	.	.	.	4cc\	.
=11	=11	=11	=11	=11	=11	=11	=11
!	!	!LO:N:vis:0.	!	!	!	!	!
0.r	.	0.r	.	4g\]	.	2b\	.
.	.	.	.	4f\	.	.	.
.	.	.	.	4e\	.	2.ee\	.
.	.	.	.	4d\	.	.	.
.	.	.	.	2c\	.	.	.
.	.	.	.	.	.	4dd\	.
.	.	.	.	2e\	.	1cc	.
.	.	.	.	1d	.	.	.
.	.	.	.	.	.	2b\	.
=12	=12	=12-	=12	=12	=12	=12	=12
[0.C	Lau-	0.ryy	.	[0.c	-tis.	1cc	-tis.
.	.	.	.	.	.	1r	.
.	.	.	.	.	.	1cc	Lau-
=13	=13	=13	=13	=13	=13	=13	=13
!	!	!LO:N:vis:0.	!	!	!	!	!
0C]	.	0.r	.	0c]	.	2.cc\	-da-
.	.	.	.	.	.	4b\	.
.	.	.	.	.	.	2cc\	.
.	.	.	.	.	.	1a	.
1c	.	.	.	1r	.	.	.
.	.	.	.	.	.	4g/	-mus
.	.	.	.	.	.	4f/	.
=14	=14	=14-	=14	=14	=14	=14	=14
2.c\	-da	0.ryy	.	0.r	.	1e	te,
4B\	.	.	.	.	.	.	.
2c\	.	.	.	.	.	1r	.
1A	.	.	.	.	.	.	.
.	.	.	.	.	.	1a	be-
4G\	-mus	.	.	.	.	.	.
4F\	.	.	.	.	.	.	.
=15	=15	=15	=15	=15	=15	=15	=15
!	!	!LO:N:vis:0.	!	!	!	!	!
1E	te,	0.r	.	0.r	.	1g	-ne-
1r	.	.	.	.	.	1.cc	-di-
1A	be-	.	.	.	.	.	.
.	.	.	.	.	.	2b\	.
=16	=16	=16-	=16	=16	=16	=16	=16
1G	-ne-	0.ryy	.	0.r	.	1b	-ci-
1.c	-di-	.	.	.	.	1.a	-mus
2B\	.	.	.	.	.	2g/	.
=17	=17	=17	=17	=17	=17	=17	=17
!	!	!LO:N:vis:0.	!	!	!	!	!
1B	-ci-	0.r	.	0.r	.	1g	te,
1.A	-mus	.	.	.	.	1r	.
.	.	.	.	.	.	1cc	ad-
2G\	.	.	.	.	.	.	.
=18	=18	=18-	=18	=18	=18	=18	=18
1G	te,	0.ryy	.	0.r	.	2b\	-o-
.	.	.	.	.	.	1b	-ra-
1r	.	.	.	.	.	.	.
.	.	.	.	.	.	2g/	.
1F	ad-	.	.	.	.	2.a/	-mus
.	.	.	.	.	.	4b\	.
=19	=19	=19	=19	=19	=19	=19	=19
!	!	!LO:N:vis:0.	!	!	!	!	!
2E\	-o-	0.r	.	0.r	.	1g	te,
1E	-ra-	.	.	.	.	.	.
.	.	.	.	.	.	1r	.
2C/	.	.	.	.	.	.	.
2.D\	-mus	.	.	.	.	1f	glo-
4E\	.	.	.	.	.	.	.
=20	=20	=20-	=20	=20	=20	=20	=20
2C/	-te,	0.ryy	.	0.r	.	2e/	-ri-
2G\	glo-	.	.	.	.	1e	-fi-
2A\	-ri-	.	.	.	.	.	.
1c	-fi-	.	.	.	.	2c/	.
.	.	.	.	.	.	2.d/	-ca-
2B\	.	.	.	.	.	.	.
.	.	.	.	.	.	4e/	.
=21	=21	=21	=21	=21	=21	=21	=21
!	!	!LO:N:vis:0.	!	!	!	!	!
1c	-ca-	0.r	.	0.r	.	2c/	.
.	.	.	.	.	.	2.g/	.
2G\	.	.	.	.	.	.	.
.	.	.	.	.	.	4f/	.
2A\	.	.	.	.	.	2e/	.
2B\	.	.	.	.	.	2d/	.
[2c\	.	.	.	.	.	2c/	.
=22	=22	=22-	=22	=22	=22	=22	=22
2c\]	.	0.ryy	.	0.r	.	2.g/	.
2G\	.	.	.	.	.	.	.
.	.	.	.	.	.	4f/	.
2A\	.	.	.	.	.	2e/	.
2B\	.	.	.	.	.	2d/	.
2c\	.	.	.	.	.	2.g/	.
[2G\	.	.	.	.	.	.	.
.	.	.	.	.	.	4f/	.
=23	=23	=23	=23	=23	=23	=23	=23
!	!	!LO:N:vis:0.	!	!	!	!	!
4G\]	.	0.r	.	0.r	.	2.e/	.
4F\	.	.	.	.	.	.	.
2.E\	.	.	.	.	.	.	.
.	.	.	.	.	.	8d/L	.
.	.	.	.	.	.	8c/J	.
.	.	.	.	.	.	2B/	.
4D\	.	.	.	.	.	.	.
2C/	.	.	.	.	.	2c/	.
2BB/	.	.	.	.	.	2d/	.
[2C/	.	.	.	.	.	[2e/	.
=24	=24	=24-	=24	=24	=24	=24	=24
2C/]	.	0.ryy	.	0.r	.	4e/]	.
.	.	.	.	.	.	4d/	.
2E\	.	.	.	.	.	1c	.
1D	-mus	.	.	.	.	.	.
.	.	.	.	.	.	2B/	-mus
1C	te.	.	.	.	.	1c	te.
=25	=25	=25	=25	=25	=25	=25	=25
!	!	!LO:N:vis=0	!	!	!	!	!
1r	.	[y0.e	L'a-	[0.c	Gra-	0.r	.
1r	.	.	.	.	.	.	.
[1C	Gra-	.	.	.	.	.	.
=26	=26	=26-	=26	=26	=26	=26	=26
0.C]	.	1e]yy	.	0c]	.	0g	Gra-
.	.	0e	-mi	.	.	.	.
.	.	.	.	1c	-ti-	1cc	-ti-
=27	=27	=27	=27	=27	=27	=27	=27
!	!	!LO:N:vis=0	!	!	!	!	!
0G	-ti-	[y0.d	Bau-	2G/	-as	2b\	-as
.	.	.	.	2.d\	a-	1b	a-
.	.	.	.	4e\	.	.	.
.	.	.	.	2g\	.	4a/	.
.	.	.	.	.	.	4g/	.
1D	-as	.	.	2f\	-gi-	1a	-gi-
.	.	.	.	[2d\	-mus	.	.
=28	=28	=28-	=28	=28	=28	=28	=28
1G	a-	1d]yy	.	2d\]	.	2b\	-mus
.	.	.	.	4c\	.	2.dd\	ti-
.	.	.	.	4B\	ti-	.	.
1F	.	0d	-di-	1A	.	.	.
.	.	.	.	.	.	4cc\	.
.	.	.	.	.	.	2a/	.
1G	-gi-	.	.	1G	-bi	1b	.
=29	=29	=29	=29	=29	=29	=29	=29
!	!	!LO:N:vis=0.	!	!	!	!	!
[0.C	-mus...	[y0.c	-chon,	1g	prop-	1cc	-bi
.	.	.	.	2e\	-ter	1g	prop-
.	.	.	.	2f\	.	.	.
.	.	.	.	1g	ma-	2e/	-ter
.	.	.	.	.	.	2f/	.
=30	=30	=30-	=30	=30	=30	=30	=30
0.C]	.	0.c]yy	.	1c	-gnam	1g	ma-
.	.	.	.	2r	.	1c	-gnam
.	.	.	.	2.g\	glo-	.	.
.	.	.	.	.	.	2.g/	glo-
.	.	.	.	4f\	.	.	.
.	.	.	.	2e\	.	.	.
.	.	.	.	.	.	4a/	.
=31	=31	=31	=31	=31	=31	=31	=31
!	!	!LO:N:vis:0.	!	!	!	!	!
0.r	.	0.r	.	2d\	.	2b\	.
.	.	.	.	2c\	.	2.cc\	.
.	.	.	.	1f	.	.	.
.	.	.	.	.	.	4b\	.
.	.	.	.	.	.	2a/	.
.	.	.	.	2e\	.	2g/	.
.	.	.	.	2d\	.	2f/	.
=32	=32	=32-	=32	=32	=32	=32	=32
0.r	.	0.ryy	.	2c\	-ri-	2e/	-ri-
.	.	.	.	2B\	-am	1d	-am
.	.	.	.	1G	tu-	.	.
.	.	.	.	.	.	1g	tu-
.	.	.	.	1A	.	.	.
.	.	.	.	.	.	2f#i/	.
=33	=33	=33	=33	=33	=33	=33	=33
!	!	!LO:N:vis=0	!	!	!	!	!
[0.G	Do-	[y0.B-	L'a-	0.G	-am.	0.g	-am.
=34	=34	=34-	=34	=34	=34	=34	=34
0G]	.	1B-]yy	.	0d	Do-	1r	.
.	.	0B-i	-mi	.	.	1r	.
1G	-mi-	.	.	1d	-mi-	1g	Do-
=35	=35	=35	=35	=35	=35	=35	=35
!	!	!LO:N:vis=0	!	!	!	!	!
1.D	-ne	[y0.A	Bau-	1.d	-ne	2f/	-mi-
.	.	.	.	.	.	2d/	-ne
.	.	.	.	.	.	2.f/	de-
1F	de-	.	.	2c\	.	.	.
.	.	.	.	.	.	4g/	.
.	.	.	.	1f	de-	2.a/	.
2D\	.	.	.	.	.	.	.
.	.	.	.	.	.	4b\	.
=36	=36	=36-	=36	=36	=36	=36	=36
2C/	-us,	1A]yy	.	2e\	-us,	2cc\	-us,
1F	rex	.	.	2.f\	rex	2.a/	rex
.	.	0A	-di-	.	.	.	.
.	.	.	.	4e\	.	4g/	.
2G\	ce-	.	.	2.d\	ce-	1g	ce-
1D	-les-	.	.	.	.	.	.
.	.	.	.	4c\	.	.	.
.	.	.	.	2A/	-les-	2f#i/	-les-
=37	=37	=37	=37	=37	=37	=37	=37
!	!	!LO:N:vis=0.	!	!	!	!	!
1G	-tis,	[y0.G	-chon,	2.B\	-tis,	1g	-tis,
.	.	.	.	4c\	.	.	.
2.B\	de-	.	.	2d\	.	1r	.
.	.	.	.	2e\	de-	.	.
4c\	.	.	.	.	.	.	.
1d	.	.	.	2d\	-us	1g	de-
.	.	.	.	[2g\	pa-	.	.
=38	=38	=38-	=38	=38	=38	=38	=38
1G	-us	0.G]yy	.	4g\]	.	2.g/	-us
.	.	.	.	4f\	.	.	.
.	.	.	.	2e\	.	.	.
.	.	.	.	.	.	4a/	.
1r	.	.	.	2d\	.	2b\	.
.	.	.	.	2c\	.	1cc	pa-
1G	pa-	.	.	1d	.	.	.
.	.	.	.	.	.	2b\	.
=39	=39	=39	=39	=39	=39	=39	=39
!	!	!LO:N:vis:0.	!	!	!	!	!
1A	.	0.r	.	1c	.	2cc\	.
.	.	.	.	.	.	1a	.
2F\	.	.	.	1d	-ni-	.	.
1G	.	.	.	.	.	1b-i	.
.	.	.	.	1G	-ter	.	.
2E\	.	.	.	.	.	4a/	.
.	.	.	.	.	.	4g/	.
=40	=40	=40-	=40	=40	=40	=40	=40
2D\	-ter	0.ryy	.	2.d\	om-	2.f/	.
1d	om-	.	.	.	.	.	.
.	.	.	.	4e\	.	4g/	.
.	.	.	.	2f\	.	2a/	-ter
2B\	-ni-	.	.	1g	-ni-	2g/	om-
1A	-po-	.	.	.	.	2.cc\	-ni-
.	.	.	.	2f#i\	-po-	.	.
.	.	.	.	.	.	4dd\	-po-
=41	=41	=41	=41	=41	=41	=41	=41
!	!	!LO:N:vis=0	!	!	!	!	!
0.G	-tens.	[y0.g	L'a-	0.g	-tens.	0b	-tens.
.	.	.	.	.	.	1r	.
=42	=42	=42-	=42	=42	=42	=42	=42
1r	.	1g]yy	.	0G	Do-	0b	Do-
1r	.	0g	-mi	.	.	.	.
1E	Do-	.	.	1G	-mi-	1b	-mi-
=43	=43	=43	=43	=43	=43	=43	=43
!	!	!LO:N:vis=0	!	!	!	!	!
0F	-mi-	[y0.f	Bau-	0A	-ne	1a	-ne
.	.	.	.	.	.	2f/	fi-
.	.	.	.	.	.	2.a/	.
[1D	-ne	.	.	1A	fi-	.	.
.	.	.	.	.	.	4g/	.
.	.	.	.	.	.	4f/	.
.	.	.	.	.	.	4e/	.
=44	=44	=44-	=44	=44	=44	=44	=44
1D]	.	1f]yy	.	1F	-li	1d	-li
0BB-i	fi-	0f	-di-	1.B-	u-	1r	.
.	.	.	.	.	.	1d	u-
.	.	.	.	2G/	.	.	.
=45	=45	=45	=45	=45	=45	=45	=45
!	!	!LO:N:vis=0.	!	!	!	!	!
[0.C	-li...	[y0.e	-chon,	1G	-ni-	1c	-ni-
.	.	.	.	1g	-ge-	2e/	-ge-
.	.	.	.	.	.	2f/	.
.	.	.	.	2e\	.	1g	-ni-
.	.	.	.	2f\	.	.	.
=46	=46	=46-	=46	=46	=46	=46	=46
0.C]	.	0.e]yy	.	1g	-ni-	1c	-te,
.	.	.	.	0c	-te,	1r	.
.	.	.	.	.	.	1cc	Je-
=47	=47	=47	=47	=47	=47	=47	=47
!	!	!LO:N:vis:0.	!	!	!	!	!
0.r	.	0.r	.	1g	Je-	1b-	-su
.	.	.	.	2f\	-su	2a/	Chri-
.	.	.	.	1e	Chri-	1g	.
.	.	.	.	4d\	.	4f/	.
.	.	.	.	4c\	.	4e/	.
=48	=48	=48-	=48	=48	=48	=48	=48
0.r	.	0.ryy	.	2d\	.	2f/	.
.	.	.	.	2G/	.	2g/	.
.	.	.	.	2A/	.	1c	.
.	.	.	.	1c	.	.	.
.	.	.	.	.	.	1d	.
.	.	.	.	2B\	.	.	.
=49	=49	=49	=49	=49	=49	=49	=49
!	!	!LO:N:vis=0	!	!	!	!	!
[0.C	Do-	[y0.e	L'a-	0c	-ste.	0.c	-ste.
.	.	.	.	2e\	Do-	.	.
.	.	.	.	2f\	-mi-	.	.
=50	=50	=50-	=50	=50	=50	=50	=50
0C]	.	1e]yy	.	1.g	-ne	0.r	.
.	.	0e	-mi	.	.	.	.
.	.	.	.	1e	.	.	.
2E\	.	.	.	.	.	.	.
2F\	.	.	.	4d\	.	.	.
.	.	.	.	4c\	.	.	.
=51	=51	=51	=51	=51	=51	=51	=51
!	!	!LO:N:vis=0	!	!	!	!	!
1G	.	[y0.d	Bau-	2.B\	de-	1r	.
.	.	.	.	4G/	.	.	.
2F\	.	.	.	2A/	.	1r	.
1G	.	.	.	2B\	.	.	.
.	.	.	.	1G	-us,	1g	Do-
4F\	-mi-	.	.	.	.	.	.
4E\	.	.	.	.	.	.	.
=52	=52	=52-	=52	=52	=52	=52	=52
2D\	-ne	1d]yy	.	1r	.	2a/	-mi-
1G	de-	.	.	.	.	1b	-ne
.	.	0d	-di-	0G	a-	.	.
2A\	.	.	.	.	.	2cc\	de-
1B	-us,	.	.	.	.	1dd	-us,
=53	=53	=53	=53	=53	=53	=53	=53
!	!	!LO:N:vis=0.	!	!	!	!	!
0c	a-	[y0.c	-chon.	0g	.	0ee	a-
1c	-gnus	.	.	1c	-gnus	1ee	-gnus
=54	=54	=54-	=54	=54	=54	=54	=54
0.C	de-	0.c]yy	.	2r	.	1.ee	de-
.	.	.	.	1g	de-	.	.
.	.	.	.	2f\	.	2dd\	.
.	.	.	.	1e	.	1cc	.
=55	=55	=55	=55	=55	=55	=55	=55
!	!	!LO:N:vis:0.	!	!	!	!	!
0G	-i,	0.r	.	1d	-i,	1b	-i,
.	.	.	.	1g	.	1r	.
1r	.	.	.	1f	fi-	1a	fi-
=56	=56	=56-	=56	=56	=56	=56	=56
0.r	.	0.ryy	.	2e\	.	2g/	.
.	.	.	.	1d	.	1f	.
.	.	.	.	1c	.	2e/	.
.	.	.	.	.	.	2.d/	.
.	.	.	.	2B\	-li-	.	.
.	.	.	.	.	.	4c/	.
=57	=57	=57	=57	=57	=57	=57	=57
!	!	!LO:N:vis:0.	!	!	!	!	!
2.C/	fi-	0.r	.	0.c	-us	2.e/	.
4D\	.	.	.	.	.	4f/	.
2E\	.	.	.	.	.	2g/	.
2.F\	.	.	.	.	.	2.a/	.
4G\	.	.	.	.	.	4g/	.
2A\	.	.	.	.	.	4f/	.
.	.	.	.	.	.	4e/	.
=58	=58	=58-	=58	=58	=58	=58	=58
2B\	.	0.ryy	.	1r	.	2d/	.
2.c\	.	.	.	.	.	2c/	.
.	.	.	.	1r	.	1e	-li-
4B\	.	.	.	.	.	.	.
2c\	.	.	.	.	.	.	.
2d\	.	.	.	1f	pa-	1d	-us
2B\	-li-	.	.	.	.	.	.
=59	=59	=59	=59	=59	=59	=59	=59
!	!	!LO:N:vis:0.	!	!	!	!	!
1c	-us	0.r	.	2e\	.	2.g/	pa-
.	.	.	.	2.g\	.	.	.
.	.	.	.	.	.	4a/	.
1r	.	.	.	.	.	2b\	.
.	.	.	.	4f\	.	.	.
.	.	.	.	1e	.	2.cc\	.
1C	pa-	.	.	.	.	.	.
.	.	.	.	.	.	4dd\	.
.	.	.	.	4d\	.	2ee\	.
.	.	.	.	4c\	.	.	.
=60	=60	=60-	=60	=60	=60	=60	=60
2BB-/	.	0.ryy	.	2d\	.	2ff\	.
2.C/	.	.	.	2c\	.	2.ee\	.
.	.	.	.	1e	.	.	.
4D\	.	.	.	.	.	4dd\	.
4E\	.	.	.	.	.	1cc	.
4F\	.	.	.	.	.	.	.
1G	.	.	.	1d	.	.	.
.	.	.	.	.	.	2b\	.
=61	=61	=61	=61	=61	=61	=61	=61
*	*	*rscale:1	*	*	*	*	*
0.Cl	-tris.	0.cl	-tris.	0.cl	-tris.	0.ccl	-tris.
!!LO:LB:i:g=z
=62||	=62||	=62||	=62||	=62||	=62||	=62||	=62||
!!section: Qui tollis
!!!OMD: Qui tollis
*M2/1	*	*M2/1	*	*M2/1	*	*M2/1	*
*met(C|)	*	*met(C|)	*	*met(C|)	*	*met(C|)	*
!	!	!LO:TX:Z=6:t=T&colon; twofold statement under successive mensuration signs	!	!	!	!	!
0G	Qui	0r	.	0r	.	0r	.
=63	=63	=63	=63	=63	=63	=63	=63
1A	tol-	0r	.	0r	.	0r	.
1A	-lis	.	.	.	.	.	.
=64	=64	=64	=64	=64	=64	=64	=64
1.G	pec-	0r	.	0g	Qui	0r	.
4F\	.	.	.	.	.	.	.
4E\	.	.	.	.	.	.	.
=65	=65	=65	=65	=65	=65	=65	=65
1F	.	0r	.	1a	tol-	0r	.
1F	-ca-	.	.	1a	-lis	.	.
=66	=66	=66	=66	=66	=66	=66	=66
1.E	-ca-	0r	.	1.g	pec-	0r	.
4D\	.	.	.	4f\	.	.	.
4C/	.	.	.	4e\	.	.	.
=67	=67	=67	=67	=67	=67	=67	=67
1D	.	0r	.	1f	.	0r	.
1D	mun-	.	.	1f	-ca-	.	.
=68	=68	=68	=68	=68	=68	=68	=68
0C	-di,	0r	.	1.e	-ta	0r	.
.	.	.	.	4d\	.	.	.
.	.	.	.	4c\	.	.	.
=69	=69	=69	=69	=69	=69	=69	=69
1r	.	0r	.	1d	.	0r	.
1G	mi-	.	.	1d	mun-	.	.
=70	=70	=70	=70	=70	=70	=70	=70
1A	-se-	0r	.	0c	-di,	0r	.
[1c	-re-	.	.	.	.	.	.
=71	=71	=71	=71	=71	=71	=71	=71
2c\]	.	0r	.	1r	.	0r	.
2B\	.	.	.	.	.	.	.
1A	.	.	.	1c	mi-	.	.
=72	=72	=72	=72	=72	=72	=72	=72
2G\	.	0r	.	1d	-se-	0r	.
2F\	.	.	.	.	.	.	.
[1D	.	.	.	[1f	-re-	.	.
=73	=73	=73	=73	=73	=73	=73	=73
1D]	.	0r	.	2f\]	.	0r	.
.	.	.	.	2e\	.	.	.
1C	.	.	.	1e	.	.	.
=74	=74	=74	=74	=74	=74	=74	=74
1.G	.	0r	.	1d	.	0r	.
.	.	.	.	[1g	.	.	.
2A\	.	.	.	.	.	.	.
=75	=75	=75	=75	=75	=75	=75	=75
1B	.	0r	.	2g\]	.	0r	.
.	.	.	.	2f\	.	.	.
1c	-re	.	.	1e	-re	.	.
=76	=76	=76	=76	=76	=76	=76	=76
2B\	no-	0r	.	2d\	no-	0r	.
2G\	.	.	.	1e	.	.	.
1A	.	.	.	.	.	.	.
.	.	.	.	4d\	.	.	.
.	.	.	.	4c\	.	.	.
=77	=77	=77	=77	=77	=77	=77	=77
1G	.	0r	.	2.B\	.	0r	.
.	.	.	.	4G/	.	.	.
2F\	.	.	.	2A/	.	.	.
2G\	.	.	.	[2G/	.	.	.
=78	=78	=78	=78	=78	=78	=78	=78
2E\	.	0r	.	2G/]	.	0r	.
2C/	.	.	.	2c\	.	.	.
2.G\	.	.	.	2B\	.	.	.
.	.	.	.	[2e\	.	.	.
4F\	.	.	.	.	.	.	.
=79	=79	=79	=79	=79	=79	=79	=79
2G\	.	0r	.	4e\]	.	0r	.
.	.	.	.	4d\	.	.	.
2E\	.	.	.	1c	.	.	.
1D	.	.	.	.	.	.	.
.	.	.	.	2B\	.	.	.
=80	=80	=80	=80	=80	=80	=80	=80
0C	-bis.	0r	.	[0c	-bis.	0r	.
=81	=81	=81	=81	=81	=81	=81	=81
0r	.	0r	.	0c]	.	0r	.
=82	=82	=82	=82	=82	=82	=82	=82
0c	Qui	0r	.	1r	.	0r	.
.	.	.	.	1c	Qui	.	.
=83	=83	=83	=83	=83	=83	=83	=83
1B	tol-	0r	.	1d	tol-	0r	.
1c	-lis	.	.	1e	-lis	.	.
=84	=84	=84	=84	=84	=84	=84	=84
1A	pec-	0r	.	1c	pec-	0r	.
1G	-ca-	.	.	[1g	-ca-	.	.
=85	=85	=85	=85	=85	=85	=85	=85
1c	.	0r	.	2g\]	.	0r	.
.	.	.	.	2f\	.	.	.
1c	-ta	.	.	1e	.	.	.
=86	=86	=86	=86	=86	=86	=86	=86
2.B\	mun-	0r	.	2.d\	.	0r	.
4A\	.	.	.	4c\	.	.	.
2B\	.	.	.	2d\	-ta	.	.
[2c\	.	.	.	[2e\	mun-	.	.
=87	=87	=87	=87	=87	=87	=87	=87
2c\]	.	0r	.	2e\]	.	0r	.
2B\	.	.	.	4d\	.	.	.
.	.	.	.	4e\	.	.	.
1A	.	.	.	4f\	.	.	.
.	.	.	.	4e\	.	.	.
.	.	.	.	4d\	.	.	.
.	.	.	.	4c\	.	.	.
=88	=88	=88	=88	=88	=88	=88	=88
1G	-di,	0r	.	0B	-di,	0r	.
1r	.	.	.	.	.	.	.
=89	=89	=89	=89	=89	=89	=89	=89
1.G	sus-	0r	.	1r	.	0r	.
.	.	.	.	1g	sus-	.	.
2F\	.	.	.	.	.	.	.
=90	=90	=90	=90	=90	=90	=90	=90
1E	-ci-	0r	.	1g	-ci-	0r	.
1D	.	.	.	1f	-pe	.	.
=91	=91	=91	=91	=91	=91	=91	=91
1C	-pe	0r	.	2e\	de-	0r	.
.	.	.	.	2c\	.	.	.
2r	.	.	.	1d	-pre-	.	.
[2F\	de-	.	.	.	.	.	.
=92	=92	=92	=92	=92	=92	=92	=92
2F\]	.	0r	.	1.c	-ca-	0r	.
2G\	-pre-	.	.	.	.	.	.
2A\	-ca-	.	.	.	.	.	.
2B\	-ti-	.	.	2B\	-ti-	.	.
=93	=93	=93	=93	=93	=93	=93	=93
1c	-o-	0r	.	1A	-o-	0r	.
2B\	-nem	.	.	2G/	-nem	.	.
[2A\	nos-	.	.	[2c\	nos-	.	.
=94	=94	=94	=94	=94	=94	=94	=94
2A\]	.	0r	.	2c\]	.	0r	.
1G	.	.	.	2B\	.	.	.
.	.	.	.	1A	.	.	.
2F#i\	.	.	.	.	.	.	.
=95	=95	=95	=95	=95	=95	=95	=95
1.G	-tram,	0r	.	2.G/	.	0r	.
.	.	.	.	4A/	.	.	.
.	.	.	.	2.B\	.	.	.
2E\	nos-	.	.	.	.	.	.
.	.	.	.	4c\	.	.	.
=96	=96	=96	=96	=96	=96	=96	=96
2F\	.	0r	.	2d\	.	0r	.
2G\	.	.	.	2.e\	.	.	.
1C	.	.	.	.	.	.	.
.	.	.	.	4f\	.	.	.
.	.	.	.	[2g\	.	.	.
=97	=97	=97	=97	=97	=97	=97	=97
1c	.	0r	.	2g\]	.	0r	.
.	.	.	.	4f\	.	.	.
.	.	.	.	4e\	.	.	.
2B\	.	.	.	2d\	.	.	.
[2G\	.	.	.	[2e\	.	.	.
=98	=98	=98	=98	=98	=98	=98	=98
4G\]	.	0r	.	4e\]	.	0r	.
4F\	.	.	.	4d\	.	.	.
2E\	.	.	.	1c	.	.	.
1D	.	.	.	.	.	.	.
.	.	.	.	2B\	.	.	.
=99	=99	=99	=99	=99	=99	=99	=99
0Cl	-tram.	0r	.	0cl	-tram.	0r	.
!!LO:LB:i:g=z
=100||	=100||	=100||	=100||	=100||	=100||	=100||	=100||
!!section: Qui sedes
!!!OMD: Qui sedes
*M2/1	*	*M2/1	*	*M2/1	*	*M2/1	*
*met(C|)	*	*met(C)	*	*met(C|)	*	*met(C|)	*
*	*	*rscale:1/2	*	*	*	*	*
!	!	!LO:TX:Z=7:t=T&colon; notated line sung twice, first under C-->2, then under Cut-C-->2 	!	!	!	!	!
!	!	!LO:N:vis=0	!	!	!	!	!
[0C	Qui	[y0e	L'a-	[0c	Qui	[0cc	Qui
=101	=101	=101-	=101	=101	=101	=101	=101
0C]	.	0e]yy	.	0c]	.	1cc]	.
.	.	.	.	.	.	2b\	.
.	.	.	.	.	.	2a/	.
=102	=102	=102	=102	=102	=102	=102	=102
0C	se-	0e	-mi	0c	se-	1g	se-
.	.	.	.	.	.	1a	.
=103	=103	=103-	=103	=103	=103	=103	=103
[0G	-des	[0d	Bau-	0G	-des	0b	-des
=104	=104	=104	=104	=104	=104	=104	=104
0G]	.	0d]	.	0g	ad	1b	ad
.	.	.	.	.	.	1b	dex-
=105	=105	=105-	=105	=105	=105	=105	=105
0D	ad	0d	-di-	1f	dex-	2a/	-te-
.	.	.	.	.	.	1a	-ram
.	.	.	.	1d	-te-	.	.
.	.	.	.	.	.	4g/	.
.	.	.	.	.	.	4f/	.
=106	=106	=106	=106	=106	=106	=106	=106
!	!	!LO:N:vis=0	!	!	!	!	!
1.A	dex-	[y0c	-chon,	1e	-ram	1.e	pa-
.	.	.	.	[1c	pa-	.	.
4G\	-te-	.	.	.	.	2f/	.
4F\	.	.	.	.	.	.	.
=107	=107	=107-	=107	=107	=107	=107	=107
1E	-ram	0c]yy	.	2c\]	.	1g	.
.	.	.	.	2B\	.	.	.
1F	.	.	.	1A	.	1a	.
=108	=108	=108	=108	=108	=108	=108	=108
!	!	!LO:N:vis=0	!	!	!	!	!
1G	pa-	0r	.	1.G	.	1b	.
2E\	.	.	.	.	.	1cc	.
2F\	.	.	.	2A/	.	.	.
=109	=109	=109-	=109	=109	=109	=109	=109
1D	.	0ryy	.	1B	.	1dd	.
[1C	.	.	.	1c	.	[1ee	.
=110	=110	=110	=110	=110	=110	=110	=110
!	!	!LO:N:vis=0	!	!	!	!	!
0C]	.	0r	.	0e	.	2ee\]	.
.	.	.	.	.	.	2cc\	.
.	.	.	.	.	.	[1cc	.
=111	=111	=111-	=111	=111	=111	=111	=111
0G	.	0ryy	.	0d	-tris,	2cc\]	.
.	.	.	.	.	.	4b\	.
.	.	.	.	.	.	4a/	.
.	.	.	.	.	.	1b	.
=112	=112	=112	=112	=112	=112	=112	=112
!	!	!LO:N:vis=0	!	!	!	!	!
0C	-tris,	[y0e	L'a-	1r	.	1cc	-tris,
.	.	.	.	1c	mi-	1r	.
=113	=113	=113-	=113	=113	=113	=113	=113
1r	.	0e]yy	.	1c	-se-	3%4gV	mi-
1C	mi-	.	.	1c	-re-	.	.
.	.	.	.	.	.	[3%2gZ	-se-
=114	=114	=114	=114	=114	=114	=114	=114
1C	-se-	0e	-mi	2G/	-re-	3%2g]V	.
.	.	.	.	2.c\	no-	.	.
.	.	.	.	.	.	3%4gZ	-re-
1C	-re-	.	.	.	.	.	.
.	.	.	.	4d\	.	.	.
.	.	.	.	2e\	.	.	.
=115	=115	=115-	=115	=115	=115	=115	=115
1.D	-re	[0d	Bau-	2f\	.	1.f	-re
.	.	.	.	1d	.	.	.
2E\	.	.	.	4c\	.	2g/	.
.	.	.	.	4B\	.	.	.
=116	=116	=116	=116	=116	=116	=116	=116
1F	.	0d]	.	1A	.	1a	.
[1G	no-	.	.	1G	-bis.	[1b-	no-
=117	=117	=117-	=117	=117	=117	=117	=117
1G]	.	0d	-di-	0r	.	2b-\]	.
.	.	.	.	.	.	2a/	.
1D	.	.	.	.	.	1a	.
=118	=118	=118	=118	=118	=118	=118	=118
!	!	!LO:N:vis=0	!	!	!	!	!
1.F	.	[y0c	-chon,	0r	.	2f/	.
.	.	.	.	.	.	1a	.
2E\	.	.	.	.	.	4g/	.
.	.	.	.	.	.	4f/	.
=119	=119	=119-	=119	=119	=119	=119	=119
0C	-bis...	0c]yy	.	1r	.	0e	-bis.
.	.	.	.	[1c	Quo-	.	.
=120	=120	=120	=120	=120	=120	=120	=120
!	!	!LO:N:vis=0	!	!	!	!	!
0r	.	0r	.	2c\]	.	1r	.
.	.	.	.	2B\	-ni-	.	.
.	.	.	.	1A	-am	1cc	Quo-
=121	=121	=121-	=121	=121	=121	=121	=121
0r	.	0ryy	.	1G	tu	1b	-ni-
.	.	.	.	[1c	so-	1a	-am
=122	=122	=122	=122	=122	=122	=122	=122
!	!	!LO:N:vis=0	!	!	!	!	!
0r	.	0r	.	2c\]	.	1g	tu
.	.	.	.	2d\	.	.	.
.	.	.	.	[1e	-lus	1g	so-
=123	=123	=123-	=123	=123	=123	=123	=123
0r	.	0ryy	.	1e]	.	1.cc	-lus
.	.	.	.	1f	sanc-	.	.
.	.	.	.	.	.	2dd\	.
*	*	*rscale:1	*	*	*	*	*
=124	=124	=124	=124	=124	=124	=124	=124
*	*	*M2/1	*	*	*	*	*
*	*	*met(2)	*	*	*	*	*
!	!	!LO:N:vis=0	!	!	!	!	!
0C	Tu	0g	L'a-	1e	.	1.ee	sanc-
.	.	.	.	[1c	-tus.	.	.
.	.	.	.	.	.	2dd\	.
=125	=125	=125.	=125	=125	=125	=125	=125
1C	so-	1g	-mi	1c]	.	1ee	.
1D	-lus	[1f	Bau-	1r	.	[1ff	.
=126	=126	=126	=126	=126	=126	=126	=126
1BB-	sanc-	1f]	.	0r	.	2ff\]	.
.	.	.	.	.	.	1dd	.
1D	.	1f	-di-	.	.	.	.
.	.	.	.	.	.	4cc\	.
.	.	.	.	.	.	4dd\	.
=127	=127	=127.	=127	=127	=127	=127	=127
[0C	tus...	0e	-chon,	1r	.	1ee	-tus.
.	.	.	.	[1c	Tu	1r	.
=128	=128	=128	=128	=128	=128	=128	=128
!	!	!LO:N:vis=0	!	!	!	!	!
0C]	.	0r	.	2c\]	.	1r	.
.	.	.	.	2B\	.	.	.
.	.	.	.	1c	.	1ee	Tu
=129	=129	=129.	=129	=129	=129	=129	=129
0r	.	0r	.	1d	so-	1ff	so-
.	.	.	.	2B\	-lus	2dd\	-lus
.	.	.	.	[2c\	do-	[2ee\	do-
=130	=130	=130	=130	=130	=130	=130	=130
!	!	!LO:N:vis=0	!	!	!	!	!
1r	.	0g	L'a-	2c\]	.	2ee\]	.
.	.	.	.	4B\	.	4dd\	-mi-
.	.	.	.	4A/	.	4cc\	.
1G	al-	.	.	1G	.	1b	-nus.
=131	=131	=131.	=131	=131	=131	=131	=131
1E	-ti-	1g	-mi	1G	-mi-	1r	.
1F	.	[1f	Bau-	[1A	-nus.	1cc	Tu
=132	=132	=132	=132	=132	=132	=132	=132
0D	-si-	1f]	.	1A]	.	1dd	so-
.	.	1f	-di-	1B	Tu	1dd	-lus
=133	=133	=133.	=133	=133	=133	=133	=133
0C	-mus,	0e	-chon,	1.c	so-	1.ee	al-
.	.	.	.	4B\	.	2cc\	.
.	.	.	.	4A/	.	.	.
=134	=134	=134	=134	=134	=134	=134	=134
!	!	!LO:N:vis=0	!	!	!	!	!
0r	.	0r	.	1B	-lus	2dd\	-tis-
.	.	.	.	.	.	2ff\	.
.	.	.	.	2c\	al-	2ee\	.
.	.	.	.	2G/	.	[2dd\	.
=135	=135	=135.	=135	=135	=135	=135	=135
0r	.	0r	.	1c	-tis-	2dd\]	.
.	.	.	.	.	.	1cc	.
.	.	.	.	1d	-si-	.	.
.	.	.	.	.	.	2b\	-si-
=136	=136	=136	=136	=136	=136	=136	=136
!	!	!LO:N:vis=0	!	!	!	!	!
1.C	Je-	0e	L'a-	1.c	-mus,	0cc	-mus,
2D\	.	.	.	4B\	.	.	.
.	.	.	.	4A/	.	.	.
=137	=137	=137.	=137	=137	=137	=137	=137
2.E\	.	1e	-mi	0G	.	0r	.
4F\	.	.	.	.	.	.	.
[1G	-su	[1d	Bau-	.	.	.	.
=138	=138	=138	=138	=138	=138	=138	=138
0G]	.	1d]	.	0g	Je-	0b	Je-
.	.	1d	-di-	.	.	.	.
=139	=139	=139.	=139	=139	=139	=139	=139
0A	Chri-	0c	-chon,	0e	-su	1.cc	-su
.	.	.	.	.	.	2b\	.
=140	=140	=140	=140	=140	=140	=140	=140
!	!	!LO:N:vis=0	!	!	!	!	!
1.F	.	0r	.	0f	Chri-	1.a	Chri-
4E\	.	.	.	.	.	4g/	.
4D\	.	.	.	.	.	4f/	.
=141	=141	=141.	=141	=141	=141	=141	=141
[0C	-ste.	0r	.	0g	-ste.	0e	-ste.
=142	=142	=142	=142	=142	=142	=142	=142
*	*	*M2/1	*	*	*	*	*
*	*	*met(C|)	*	*	*	*	*
0C]	.	0e	L'a-	1.c	Cum	0r	.
.	.	.	.	2B\	.	.	.
=143	=143	=143	=143	=143	=143	=143	=143
0r	.	1e	-mi	1c	.	0r	.
.	.	[1d	Bau-	1d	sanc-	.	.
=144	=144	=144	=144	=144	=144	=144	=144
0r	.	1d]	.	1B	-to	0r	.
.	.	1d	-di-	1r	.	.	.
=145	=145	=145	=145	=145	=145	=145	=145
[0C	Cum	0c	-chon,	1.e	spi-	1.cc	Cum
.	.	.	.	2d\	.	2b\	.
=146	=146	=146	=146	=146	=146	=146	=146
1C]	.	0r	.	1c	.	1cc	.
[1G	.	.	.	2B\	.	1dd	sanc-
.	.	.	.	[2d\	.	.	.
=147	=147	=147	=147	=147	=147	=147	=147
0G]	.	0r	.	4d\]	.	1b	-to
.	.	.	.	4c\	.	.	.
.	.	.	.	4B\	.	.	.
.	.	.	.	4A/	.	.	.
.	.	.	.	1B	-ri-	1r	.
=148	=148	=148	=148	=148	=148	=148	=148
1.C	sanc-	0e	L'a-	0c	-tu,	1.gg	spi-
2D\	-to	.	.	.	.	2ff\	.
=149	=149	=149	=149	=149	=149	=149	=149
2.E\	spi-	1e	-mi	0G	.	2ee\	.
.	.	.	.	.	.	4dd\	.
4F\	.	.	.	.	.	4cc\	.
2.G\	.	[1d	Bau-	.	.	2b\	.
.	.	.	.	.	.	[2dd\	.
4A\	.	.	.	.	.	.	.
=150	=150	=150	=150	=150	=150	=150	=150
2.B\	.	1d]	.	0r	.	4dd\]	.
.	.	.	.	.	.	4cc\	.
.	.	.	.	.	.	4b\	.
4c\	.	.	.	.	.	4a/	.
1G	-ri-	1d	-di-	.	.	1b	-ri-
=151	=151	=151	=151	=151	=151	=151	=151
0C	-tu,	0c	-chon,	1g	in	1cc	-tu,
.	.	.	.	2a\	glo-	1r	.
.	.	.	.	[2g\	.	.	.
=152	=152	=152	=152	=152	=152	=152	=152
0r	.	0r	.	2g\]	.	1g	in
.	.	.	.	2e\	.	.	.
.	.	.	.	2f\	.	2a/	glo-
.	.	.	.	2g\	.	[2g/	.
=153	=153	=153	=153	=153	=153	=153	=153
0r	.	0r	.	2e\	.	2g/]	.
.	.	.	.	2c\	.	4f/	.
.	.	.	.	.	.	4e/	.
.	.	.	.	2.d\	-ri-	2.f/	-ri-
.	.	.	.	4e\	.	4g/	.
=154	=154	=154	=154	=154	=154	=154	=154
*M2/1	*	*M2/1	*	*	*	*	*
*met(2)	*	*met(2)	*	*	*	*	*
*rscale:2	*	*rscale:2	*	*	*	*	*
2.C/	in	1g	L'a-	0c	-a	1e	-a
4D\	.	.	.	.	.	.	.
2E\	glo-	2g\	-mi	.	.	1r	.
2F\	-	[2f\	Bau-	.	.	.	.
=155	=155	=155	=155	=155	=155	=155	=155
2D\	-ri-	2f\]	.	1r	.	1a	de-
2F\	.	2f\	-di-	.	.	.	.
1C	-a	1e	-chon,	[1c	de-	2g/	-i
.	.	.	.	.	.	[2g/	pa-
=156	=156	=156	=156	=156	=156	=156	=156
0r	.	0r	.	1c]	.	2g/]	.
.	.	.	.	.	.	4f/	.
.	.	.	.	.	.	4e/	.
.	.	.	.	1d	-i	2f/	.
.	.	.	.	.	.	4e/	.
.	.	.	.	.	.	4d/	.
=157	=157	=157	=157	=157	=157	=157	=157
1.C	de-	1g	L'a-	2.e\	pa-	1c	-tris.
.	.	.	.	4d\	.	.	.
.	.	2g\	-mi	2e\	.	1r	.
2D\	-i	[2f\	Bau-	2f\	.	.	.
=158	=158	=158	=158	=158	=158	=158	=158
2BB-/	pa-	2f\]	.	1d	-tris.	1r	.
2D\	.	2f\	-di-	.	.	.	.
[1C	-tris.	1e	-chon,	1r	.	2.c/	A-
.	.	.	.	.	.	4d/	.
=159	=159	=159	=159	=159	=159	=159	=159
1C]	.	0r	.	2.c\	A-	2e/	.
.	.	.	.	.	.	2f/	.
.	.	.	.	4d\	.	.	.
1r	.	.	.	2.e\	.	1g	-men,
.	.	.	.	4f\	.	.	.
=160	=160	=160	=160	=160	=160	=160	=160
2.C/	A-	1e	L'a-	1.g	.	2r	.
.	.	.	.	.	.	1g	a-
4D\	.	.	.	.	.	.	.
2E\	.	2e\	-mi	.	.	.	.
2F\	.	[2d\	Bau-	2f\	.	2a/	.
=161	=161	=161	=161	=161	=161	=161	=161
1G	.	2d\]	.	2d\	.	1b	.
.	.	2d\	-di-	2g\	.	.	.
1A	.	1c	-chon,	2e\	.	1cc	.
.	.	.	.	2f\	.	.	.
=162	=162	=162	=162	=162	=162	=162	=162
1B	.	0r	.	1d	.	1dd	.
1c	-men,	.	.	[1c	-men,	1ee	.
=163	=163	=163	=163	=163	=163	=163	=163
0A	a-	0c	A-	1c]	.	2ff\	.
.	.	.	.	.	.	1ee	.
.	.	.	.	2e\	a-	.	.
.	.	.	.	2f\	.	4dd\	.
.	.	.	.	.	.	4cc\	.
=164	=164	=164	=164	=164	=164	=164	=164
*rscale:1	*	*rscale:1	*	*	*	*	*
!LO:N:vis=00	!	!LO:N:vis=00	!	!LO:N:vis=00	!	!LO:N:vis=00	!
0G;	.	0d;	.	0g;	.	0b;	.
=165	=165	=165	=165	=165	=165	=165	=165
0Cl	-men.	0cl	-men.	0gl	-men.	0ccl	-men.
==	==	==	==	==	==	==	==
*-	*-	*-	*-	*-	*-	*-	*-
!!!RDF**kern: l=long note in original notation
!!!RDF**kern: i=editorial accidental
!!!RDF**kern: V=start of tuplet marker
!!!RDF**kern: Z=end of tuplet marker
!!!ENC: Jesse Rodin 2021/09/30
!!!END: 2012/02/07/
!!!EED: Jesse Rodin
!!!EEV: 2012/05/25/
!!attribution-level@Jos: 2 (provisionally attributable [parentheses checkmark])
!!!ONB: Translated from MusicXML and edited on 2012/05/25/ by Craig Sapp
!!muse2ps: T^@{OPR}^u^@{ONM}{. }@{OTL}^C^@{COM}\n@{SCT}^i2I150v90,90,90,120c122z18l2700t130
